dist/svgs/core-ui-icons/free/cil-cast.svg

<svg xmlns="http://www.w3.org/2000/svg" viewBox="0 0 512 512"><path d="M16 360v64h64a64 64 0 00-64-64zM472 80H40a24.028 24.028 0 00-24 24v72h32v-64h416v280H264v32h208a24.028 24.028 0 0024-24V104a24.028 24.028 0 00-24-24z"/><path d="M16 216v32c97.047 0 176 78.953 176 176h32c0-114.691-93.309-208-208-208z"/><path d="M16 288v32a104.118 104.118 0 01104 104h32c0-74.991-61.009-136-136-136z"/></svg>

<svg xmlns="http://www.w3.org/2000/svg" viewBox="0 0 512 512">
  <path fill="var(--ci-primary-color, currentColor)" d="M16,360h0v64H80A64,64,0,0,0,16,360Z" class="ci-primary"/>
  <path fill="var(--ci-primary-color, currentColor)" d="M472,80H40a24.028,24.028,0,0,0-24,24v72H48V112H464V392H264v32H472a24.028,24.028,0,0,0,24-24V104A24.028,24.028,0,0,0,472,80Z" class="ci-primary"/>
  <path fill="var(--ci-primary-color, currentColor)" d="M16,216v32c97.047,0,176,78.953,176,176h32C224,309.309,130.691,216,16,216Z" class="ci-primary"/>
  <path fill="var(--ci-primary-color, currentColor)" d="M16,288v32A104.118,104.118,0,0,1,120,424h32C152,349.009,90.991,288,16,288Z" class="ci-primary"/>
</svg>
